symbols/web/tapas/materialsymbolssharp/tapas_wght200gradN25_24px.svg

<svg xmlns="http://www.w3.org/2000/svg" height="24" width="24"><path d="M6.925 22.625v-9.55h-2.15q-.825 0-1.4-.563-.575-.562-.575-1.387t.575-1.4q.575-.575 1.4-.575h2.15v-1.3h-2.15q-.825 0-1.4-.575t-.575-1.4q0-.8.575-1.375t1.4-.575h2.15v-2.55h.925v2.55H10q.825 0 1.4.562.575.563.575 1.388t-.575 1.4q-.575.575-1.4.575H7.85v1.3H10q.825 0 1.4.575t.575 1.4q0 .8-.575 1.375t-1.4.575H7.85v9.55Zm-2.15-10.5H10q.425 0 .725-.288.3-.287.3-.712t-.3-.725q-.3-.3-.725-.3H4.775q-.425 0-.725.3t-.3.725q0 .425.3.712.3.288.725.288Zm0-5.225H10q.425 0 .725-.288.3-.287.3-.737 0-.425-.3-.725T10 4.85H4.775q-.425 0-.725.3t-.3.725q0 .45.3.737.3.288.725.288ZM15.15 22.625V21.7h2v-8.275Q15.85 13.1 15 12.15q-.85-.95-.85-2.15V1.375h6.925V10q0 1.225-.85 2.15-.85.925-2.15 1.275V21.7h2v.925Zm2.475-10.1q1.05 0 1.788-.738.737-.737.737-1.787V7.45h-5.075V10q0 1.05.75 1.787.75.738 1.8.738Zm-2.55-6h5.075V2.3h-5.075Zm-11.325 5.6V10.1v2.025Zm0-5.225V4.85 6.9Zm13.875.55Z"/></svg>

<svg xmlns="http://www.w3.org/2000/svg" height="24" width="24"><path d="M6.925 22.625V13.075H4.775Q3.95 13.075 3.375 12.512Q2.8 11.95 2.8 11.125Q2.8 10.3 3.375 9.725Q3.95 9.15 4.775 9.15H6.925V7.85H4.775Q3.95 7.85 3.375 7.275Q2.8 6.7 2.8 5.875Q2.8 5.075 3.375 4.5Q3.95 3.925 4.775 3.925H6.925V1.375H7.85V3.925H10Q10.825 3.925 11.4 4.487Q11.975 5.05 11.975 5.875Q11.975 6.7 11.4 7.275Q10.825 7.85 10 7.85H7.85V9.15H10Q10.825 9.15 11.4 9.725Q11.975 10.3 11.975 11.125Q11.975 11.925 11.4 12.5Q10.825 13.075 10 13.075H7.85V22.625ZM15.15 22.625V21.7H17.15V13.425Q15.85 13.1 15 12.15Q14.15 11.2 14.15 10V1.375H21.075V10Q21.075 11.225 20.225 12.15Q19.375 13.075 18.075 13.425V21.7H20.075V22.625ZM15.075 7.45V10Q15.075 11.05 15.825 11.787Q16.575 12.525 17.625 12.525Q18.675 12.525 19.413 11.787Q20.15 11.05 20.15 10V7.45ZM15.075 6.525H20.15V2.3H15.075ZM17.625 7.45Q17.625 7.45 17.625 7.45Q17.625 7.45 17.625 7.45Q17.625 7.45 17.625 7.45Q17.625 7.45 17.625 7.45Z"/></svg>
